X:1
T:Kilfenora Jig
S:Girvan Festival
Z:robin.beech@mcgill.ca
R:jig
M:6/8
L:1/8
K:D
F2A ABA | ABA FED | G2B B2A | B2A Bcd |
F2A ABA | ABA ABc | dcB AGF | GFE D3 ::
d2A F2A | dce dcB | dcB AGF | EFG ABc |
d2A F2A | dce d3 | dcB AGF | GFE D3 :|
